X: 1
T:Tommy Cohen #2
R:reel
D:session
Z:Richard Tait
M:C
K:F
|:BA|G2 dG G2 dG|F2 cF GF F2|G2 dG G2 dG|FGAc dAcA|
G2 dG G2 dG|F2 cF GF F2|FDCD FGAc|dAcA G2:|
|:Bc|dg g2 dgag|f2 af cfaf|dg g2 dgag|fdcA FGAc|
dg g2 dgag|f2 af cfaf|d2 de fage|fdcA G3 A:|
